static/img/logos/O3DE-Circle-LogoMark-REV-MONO.svg

<svg fill="none" height="212" viewBox="0 0 211 212" width="211" xmlns="http://www.w3.org/2000/svg"><path d="m211 105.468c0-3.608-.19-7.3431-.569-11.015-1.52-14.8136-6.078-28.8676-13.548-41.7188-7.343-12.7246-17.536-23.9931-29.374-32.6028-12.092-8.7995-25.576-14.81367-40.073-17.85237-14.371-3.038707-29.5012-3.038707-43.8715 0-14.5606 3.102-28.0449 9.11617-40.0731 17.85237-11.8382 8.6097-22.0306 19.9415-29.3741 32.6028-7.47016 12.9145-12.02819 26.9052-13.547495 41.7188-.379906 3.7352-.569805 7.407-.569805 11.015 0 11.142 1.70931 22.095 5.12783 32.603 4.62133 14.117 11.96487 26.906 21.96737 37.984 10.0023 11.079 21.9039 19.752 35.5148 25.829 13.5475 6.077 27.9811 9.116 42.922 9.116 14.939 0 29.373-3.039 42.922-9.116 13.547-6.077 25.512-14.75 35.515-25.829 10.001-11.078 17.345-23.867 21.967-37.984 3.355-10.508 5.064-21.461 5.064-32.603zm-3.988-13.4206-25.449-11.3318 13.927-24.1198c6.014 11.0154 9.876 22.9803 11.522 35.4516zm-50.076 13.4206c0 28.425-23.043 51.532-51.531 51.532-28.4875 0-51.5313-23.044-51.5313-51.532 0-28.4875 23.0438-51.531 51.5313-51.531 28.488 0 51.531 23.0435 51.531 51.531zm-130.9805 0c0 1.583.0635 3.165.1268 4.748l-21.08107-15.3199 23.73987-10.572c-1.7726 6.7104-2.7856 13.8008-2.7856 21.1439zm8.9263 36.591-25.44915-5.381 17.40925-19.372c1.3295 8.8 4.0516 17.156 8.0399 24.753zm149.0872-24.753 17.409 19.372-25.45 5.381c3.988-7.597 6.774-15.953 8.041-24.753zm-1.963-32.9819 23.739 10.572-21.081 15.3199c.064-1.583.127-3.165.127-4.748.063-7.3431-.886-14.4335-2.785-21.1439zm-2.216-6.8372c-3.102-8.2298-7.533-15.8266-13.041-22.537h12.534 13.548zm-13.547-38.237 1.583-15.0669c9.875 7.5968 18.421 17.0927 24.942 27.7282h-27.855zm-2.976-1.7093-1.266 12.1549c-6.077-6.2041-13.231-11.3952-21.082-15.3202l10.257-4.558 13.547-6.0142zm.19-16.5862-13.231 5.8875-12.218 5.4443-.38-1.0762-8.293-25.44917c12.281 2.97542 23.74 8.03997 34.122 15.19357zm-28.995 10.5089c-7.913-3.102-16.523-5.0013-25.448-5.3811l17.409-19.37177zm-10.381-26.77868-18.676 20.70118-18.6755-20.70118c12.2815-2.27898 25.0695-2.27898 37.3515 0zm-39.6301 2.02581 17.4091 19.37177c-8.9267.3798-17.5363 2.2791-25.4494 5.3811zm-2.9752-.9496-8.3569 25.82907-.2532.7597-.2533-.1267-25.1958-11.2052c10.3821-7.2169 21.7773-12.28145 34.0592-15.25687zm-20.6384 24.62627 9.0529 3.9882c-7.8501 3.925-14.9403 9.1161-21.081 15.3202l-.9496-9.2428-1.7726-16.7129zm-17.8523-6.2041 2.9121 27.7282h-27.8548c6.5205-10.6355 15.0669-20.1314 24.9427-27.7282zm1.0763 30.8302c-5.5078 6.7104-9.9392 14.3072-13.0412 22.537l-12.9778-22.537zm-28.7412 1.5826 13.9275 24.1198-25.44918 11.3318c1.64591-12.4713 5.50763-24.4362 11.52168-35.4516zm-12.40798 48.8722c0-2.658.1266-5.317.3165-8.0395l1.26611.9496 21.27087 15.4459-18.61196 20.702c-2.78552-9.369-4.24152-19.182-4.24152-29.058zm5.88743 34.249 27.28505 5.761-8.6096 26.525c-8.2299-9.622-14.4972-20.448-18.67545-32.286zm21.58755 33.299 8.0398-24.753c4.6847 7.344 10.6355 13.928 17.4093 19.309zm.6963 2.976 27.285-5.824 2.9122 27.728c-11.3952-5.381-21.5242-12.725-30.1972-21.904zm30.577-4.242c7.2169 4.748 15.1934 8.356 23.7395 10.572l-21.0173 15.32zm4.5581 28.424 22.5372-16.396 2.2786 3.989 11.6487 20.194c-12.5977-.379-24.8791-2.975-36.4645-7.787zm26.209-16.333c4.2412.697 8.6095 1.077 13.0405 1.077 4.432 0 8.8-.38 13.042-1.077l-13.105 22.537zm15.6995 24.057 2.279-3.988 11.648-20.195 22.537 16.397c-11.585 4.874-23.866 7.47-36.464 7.786zm38.364-10.256-21.018-15.32c8.547-2.216 16.586-5.824 23.74-10.572zm3.039.317 2.912-27.729 27.284 5.825c-8.672 9.116-18.801 16.46-30.196 21.904zm5.444-30.387c6.837-5.444 12.724-11.965 17.409-19.309l8.04 24.753zm28.362 4.431-8.611-26.525 27.286-5.761c-4.179 11.838-10.446 22.664-18.675 32.286zm20.384-37.477-18.675-20.702 22.537-16.3955c.189 2.7225.316 5.3815.316 8.0395 0 9.876-1.393 19.689-4.178 29.058z" fill="#000"/></svg>

<svg width="211" height="212" viewBox="0 0 211 212" fill="none" xmlns="http://www.w3.org/2000/svg">
<path d="M211 105.468C211 101.86 210.81 98.1249 210.431 94.453C208.911 79.6394 204.353 65.5854 196.883 52.7342C189.54 40.0096 179.347 28.7411 167.509 20.1314C155.417 11.3319 141.933 5.31773 127.436 2.27903C113.065 -0.759677 97.9348 -0.759677 83.5645 2.27903C69.0039 5.38103 55.5196 11.3952 43.4914 20.1314C31.6532 28.7411 21.4608 40.0729 14.1173 52.7342C6.64714 65.6487 2.08911 79.6394 0.569805 94.453C0.189899 98.1882 0 101.86 0 105.468C0 116.61 1.70931 127.563 5.12783 138.071C9.74916 152.188 17.0927 164.977 27.0952 176.055C37.0975 187.134 48.9991 195.807 62.61 201.884C76.1575 207.961 90.5911 211 105.532 211C120.471 211 134.905 207.961 148.454 201.884C162.001 195.807 173.966 187.134 183.969 176.055C193.97 164.977 201.314 152.188 205.936 138.071C209.291 127.563 211 116.61 211 105.468ZM207.012 92.0474L181.563 80.7156L195.49 56.5958C201.504 67.6112 205.366 79.5761 207.012 92.0474ZM156.936 105.468C156.936 133.893 133.893 157 105.405 157C76.9175 157 53.8737 133.956 53.8737 105.468C53.8737 76.9805 76.9175 53.937 105.405 53.937C133.893 53.937 156.936 76.9805 156.936 105.468ZM25.9555 105.468C25.9555 107.051 26.019 108.633 26.0823 110.216L5.00123 94.8961L28.7411 84.3241C26.9685 91.0345 25.9555 98.1249 25.9555 105.468ZM34.8818 142.059L9.43265 136.678L26.8419 117.306C28.1714 126.106 30.8935 134.462 34.8818 142.059ZM183.969 117.306L201.378 136.678L175.928 142.059C179.916 134.462 182.702 126.106 183.969 117.306ZM182.006 84.3241L205.745 94.8961L184.664 110.216C184.728 108.633 184.791 107.051 184.791 105.468C184.854 98.1249 183.905 91.0345 182.006 84.3241ZM179.79 77.4869C176.688 69.2571 172.257 61.6603 166.749 54.9499H179.283H192.831L179.79 77.4869ZM166.243 39.2499L167.826 24.183C177.701 31.7798 186.247 41.2757 192.768 51.9112H164.913L166.243 39.2499ZM163.267 37.5406L162.001 49.6955C155.924 43.4914 148.77 38.3003 140.919 34.3753L151.176 29.8173L164.723 23.8031L163.267 37.5406ZM163.457 20.9544L150.226 26.8419L138.008 32.2862L137.628 31.21L129.335 5.76083C141.616 8.73625 153.075 13.8008 163.457 20.9544ZM134.462 31.4633C126.549 28.3613 117.939 26.462 109.014 26.0822L126.423 6.71043L134.462 31.4633ZM124.081 4.68462L105.405 25.3858L86.7295 4.68462C99.011 2.40564 111.799 2.40564 124.081 4.68462ZM84.4509 6.71043L101.86 26.0822C92.9333 26.462 84.3237 28.3613 76.4106 31.4633L84.4509 6.71043ZM81.4757 5.76083L73.1188 31.5899L72.8656 32.3496L72.6123 32.2229L47.4165 21.0177C57.7986 13.8008 69.1938 8.73625 81.4757 5.76083ZM60.8373 30.3871L69.8902 34.3753C62.0401 38.3003 54.9499 43.4914 48.8092 49.6955L47.8596 40.4527L46.087 23.7398L60.8373 30.3871ZM42.985 24.183L45.8971 51.9112H18.0423C24.5628 41.2757 33.1092 31.7798 42.985 24.183ZM44.0613 55.0132C38.5535 61.7236 34.1221 69.3204 31.0201 77.5502L18.0423 55.0132H44.0613ZM15.3201 56.5958L29.2476 80.7156L3.79842 92.0474C5.44433 79.5761 9.30605 67.6112 15.3201 56.5958ZM2.91212 105.468C2.91212 102.81 3.03872 100.151 3.22862 97.4285L4.49473 98.3781L25.7656 113.824L7.15364 134.526C4.36812 125.157 2.91212 115.344 2.91212 105.468ZM8.79955 139.717L36.0846 145.478L27.475 172.003C19.2451 162.381 12.9778 151.555 8.79955 139.717ZM30.3871 173.016L38.4269 148.263C43.1116 155.607 49.0624 162.191 55.8362 167.572L30.3871 173.016ZM31.0834 175.992L58.3684 170.168L61.2806 197.896C49.8854 192.515 39.7564 185.171 31.0834 175.992ZM61.6604 171.75C68.8773 176.498 76.8538 180.106 85.3999 182.322L64.3826 197.642L61.6604 171.75ZM66.2185 200.174L88.7557 183.778L91.0343 187.767L102.683 207.961C90.0853 207.582 77.8039 204.986 66.2185 200.174ZM92.4275 183.841C96.6687 184.538 101.037 184.918 105.468 184.918C109.9 184.918 114.268 184.538 118.51 183.841L105.405 206.378L92.4275 183.841ZM108.127 207.898L110.406 203.91L122.054 183.715L144.591 200.112C133.006 204.986 120.725 207.582 108.127 207.898ZM146.491 197.642L125.473 182.322C134.02 180.106 142.059 176.498 149.213 171.75L146.491 197.642ZM149.53 197.959L152.442 170.23L179.726 176.055C171.054 185.171 160.925 192.515 149.53 197.959ZM154.974 167.572C161.811 162.128 167.698 155.607 172.383 148.263L180.423 173.016L154.974 167.572ZM183.336 172.003L174.725 145.478L202.011 139.717C197.832 151.555 191.565 162.381 183.336 172.003ZM203.72 134.526L185.045 113.824L207.582 97.4285C207.771 100.151 207.898 102.81 207.898 105.468C207.898 115.344 206.505 125.157 203.72 134.526Z" fill="black"/>
</svg>
